icons/filled/copy-plus.svg

<svg xmlns="http://www.w3.org/2000/svg" width="24" height="24" viewBox="0 0 24 24" fill="currentColor"><path d="M18.333 6a3.667 3.667 0 0 1 3.667 3.667v8.666a3.667 3.667 0 0 1 -3.667 3.667h-8.666a3.667 3.667 0 0 1 -3.667 -3.667v-8.666a3.667 3.667 0 0 1 3.667 -3.667zm-4.333 4a1 1 0 0 0 -1 1v2h-2a1 1 0 0 0 -.993 .883l-.007 .117a1 1 0 0 0 1 1h2v2a1 1 0 0 0 .883 .993l.117 .007a1 1 0 0 0 1 -1v-2h2a1 1 0 0 0 .993 -.883l.007 -.117a1 1 0 0 0 -1 -1h-2v-2a1 1 0 0 0 -.883 -.993zm1 -8c1.094 0 1.828 .533 2.374 1.514a1 1 0 1 1 -1.748 .972c-.221 -.398 -.342 -.486 -.626 -.486h-10c-.548 0 -1 .452 -1 1v9.998c0 .32 .154 .618 .407 .805l.1 .065a1 1 0 1 1 -.99 1.738a3 3 0 0 1 -1.517 -2.606v-10c0 -1.652 1.348 -3 3 -3z"/></svg>

<svg xmlns="http://www.w3.org/2000/svg" width="24" height="24" fill="currentColor"><path d="M18.333 6A3.667 3.667 0 0 1 22 9.667v8.666A3.667 3.667 0 0 1 18.333 22H9.667A3.667 3.667 0 0 1 6 18.333V9.667A3.667 3.667 0 0 1 9.667 6zM14 10a1 1 0 0 0-1 1v2h-2a1 1 0 0 0-.993.883L10 14a1 1 0 0 0 1 1h2v2a1 1 0 0 0 .883.993L14 18a1 1 0 0 0 1-1v-2h2a1 1 0 0 0 .993-.883L18 14a1 1 0 0 0-1-1h-2v-2a1 1 0 0 0-.883-.993zm1-8c1.094 0 1.828.533 2.374 1.514a1 1 0 1 1-1.748.972C15.405 4.088 15.284 4 15 4H5c-.548 0-1 .452-1 1v9.998c0 .32.154.618.407.805l.1.065a1 1 0 1 1-.99 1.738A3 3 0 0 1 2 15V5c0-1.652 1.348-3 3-3z"/></svg>
